X:1
T:Title
%%score { ( 1 3 ) | ( 2 4 ) }
L:1/8
M:3/4
K:Bb
V:1 treble nm="Grand Piano"
V:3 treble 
V:2 bass 
V:4 bass 
V:1
 z2 z2[Q:1/4=100] [DF][CE] | [B,D]2 [DF]2 [EG]2 | [EB]2 [DB]3 [DB] | c2 c2 d2 | [DB]4 BA | %5
 G2 G3 B | [EB]2 [DF]2 [DB]2 | [=EG]2 [EG]2 [Ec]2 | c4 FE | D2 [DF]2 [EG]2 | [EB]2 [DB]2 [DB]2 | %11
 [Ec]2 [Dc]2 [^Fd]2 | B4 B2 | c2 B2 G2 | F2 [DB]2 [B,D]E | [F,DF]2 [A,CF]2 [CEF]2 | %16
[M:2/4] [B,DF]4 |] %17
V:2
 z2 z2 [B,,B,]2 | [B,,F,]2 [B,,F,]2 [B,,B,]2 | [B,,G,]2 [B,,F,]3 [B,,F,] | %3
 [F,A,E]2 [F,A,E]2 [F,A,F]2 | [B,,B,]4 [B,,B,]2 | [E,B,E]2 [E,B,E]3 [E,G,E] | %6
 [B,,G,]2 [B,,F,]2 [B,,F,]2 | [C,B,]2 [C,B,]2 [C,B,]2 | [F,A,E]4 DC | %9
 [B,,F,B,]2 [B,,F,]2 [B,,B,]2 | [B,,G,]2 [B,,F,]2 [B,,F,]2 | [F,A,]2 [^F,A,]2 [D,A,]2 | %12
 [G,B,D]4 [G,B,D]2 | [E,G,E]2 [E,G,E]2 [E,B,E]2 | [F,B,D]2 [F,,F,]2 z C | F,,2 F,,2 F,,2 | %16
[M:2/4] B,,4 |] %17
V:3
 x6 | x6 | x6 | x6 | z2 z2 D2 | x6 | x6 | x6 | x6 | x6 | x6 | x6 | x6 | x6 | x6 | x6 |[M:2/4] x4 |] %17
V:4
 x6 | x6 | x6 | x6 | x6 | x6 | x6 | x6 | z2 z2 [F,A,]2 | x6 | x6 | x6 | x6 | x6 | z2 z2 [F,,F,]2 | %15
 x6 |[M:2/4] x4 |] %17

